X:1
T:Title
%%score { ( 1 2 ) | ( 3 4 ) }
L:1/8
M:3/4
K:F
V:1 treble nm="Grand Piano"
V:2 treble 
V:3 bass 
V:4 bass 
V:1
 z2 z2[Q:1/4=100] z F | A>A A2 G2 | F2 C2 [A,CF][FA] | [CAc]>[CAc] [CAc]2 [CGB]2 | [CFA]4 [CFA]2 | %5
 [DFB]>[DFB] [DFB]2 [Fd]2 | c2 A2 A2 | A>G F2 A2 | [EG]4 z F | A>A A2 G2 | F2 C2 FA | %11
 [Ac]>[Ac] [Ac]2 [GB]2 | [FA]4 [Fc]2 | [Fd]>[Fd] [Ff]2 [Fd]2 | [Fc]2 [CFA]2 F-[DFG] | %15
 [FA]>[GB] [FA]2 [EG]2 |[M:2/4] F4 |[M:1/4] c2 |[M:3/4] [Ec]3 [EG] [FA][GB] | [FA]2 [Ac]2 [Fc]2 | %20
 [Ec]>[EG] [FA]2 [GB]2 |[M:2/4] [FA]4 |[M:1/4] [Fc]2 |[M:3/4] [Fd]3 [Ff] [Fe][Fd] | %24
 [Fc]2 [CFA]2 [DGB]2 | [CFA]>G F2 E2 |[M:2/4] F4 |] %27
V:2
 z2 z2 C2 | x6 | x6 | x6 | x6 | x6 | x6 | x6 | z2 z2 C2 | x6 | x6 | x6 | x6 | x6 | z2 z2 .C2 | x6 | %16
[M:2/4] x4 |[M:1/4] x2 |[M:3/4] x6 | x6 | x6 |[M:2/4] x4 |[M:1/4] x2 |[M:3/4] x6 | x6 | x6 | %26
[M:2/4] x4 |] %27
V:3
 z2 z2 [F,A,]2 | [F,CF]>[F,CF] [F,CF]2 [F,B,C]2 | [F,A,C]2 [F,A,]2 z C | F,>F, C,2 C,2 | F,4 F,2 | %5
 B,,>B,, B,,2 [B,,B,]2 | [F,A,F]2 [F,CF]2 [F,CF]2 | [F,CF]>[G,CE] [A,C]2 [F,CF]2 | [C,C]4 [F,A,]2 | %9
 [F,CF]>[F,CF] [F,CF]2 [F,B,C]2 | [F,A,C]2 [F,A,]2 [A,C][CF] | [F,C]>[F,C] [C,C]2 [C,C]2 | %12
 [F,C]4 [F,A,]2 | [B,,B,]>[B,,B,] [B,,D]2 [B,,B,]2 | [F,A,]2 F,2 A,,B,, | %15
 [C,C]>[C,C] [C,C]2 [C,B,]2 |[M:2/4] [F,A,]4 |[M:1/4] [F,A,F]2 |[M:3/4] [C,G,]3 [C,C] [C,C][C,C] | %19
 [F,C]2 [F,C]2 [F,A,]2 | [C,G,]>[C,C] [C,C]2 [C,C]2 |[M:2/4] [F,C]4 |[M:1/4] [F,A,]2 | %23
[M:3/4] [B,,B,]3 [B,,D] [B,,C][B,,B,] | [F,A,]2 F,2 B,,2 | C,>[C,B,C] [C,A,C]2 [C,G,C]2 | %26
[M:2/4] [F,A,C]4 |] %27
V:4
 x6 | x6 | z2 z2 F,2 | x6 | x6 | x6 | x6 | x6 | x6 | x6 | z2 z2 F,2 | x6 | x6 | x6 | x6 | x6 | %16
[M:2/4] x4 |[M:1/4] x2 |[M:3/4] x6 | x6 | x6 |[M:2/4] x4 |[M:1/4] x2 |[M:3/4] x6 | x6 | x6 | %26
[M:2/4] x4 |] %27

